src/4-icons/email.svg

<svg width="260" height="260" viewBox="0 0 260 260" fill="none" xmlns="http://www.w3.org/2000/svg">
<g opacity="0.9">
<path d="M44.1999 198.874H219.258C223.548 198.874 227.058 195.364 227.058 191.074V78.3127C227.058 74.0227 223.548 70.5127 219.258 70.5127H44.1999C39.9099 70.5127 36.3999 74.0227 36.3999 78.3127V191.074C36.3999 195.364 39.9099 198.874 44.1999 198.874ZM46.7999 188.474V87.6727L133.302 144.326L216.657 87.2563V188.5H46.7989L46.7999 188.474ZM55.4581 80.9117H207.506L133.172 131.793L55.4571 80.9117H55.4581Z" fill="black"/>
</g>
</svg>

<svg width="260" height="260" fill="none" xmlns="http://www.w3.org/2000/svg"><path d="M44.2 198.874h175.058c4.29 0 7.8-3.51 7.8-7.8V78.313c0-4.29-3.51-7.8-7.8-7.8H44.2c-4.29 0-7.8 3.51-7.8 7.8v112.761c0 4.29 3.51 7.8 7.8 7.8Zm2.6-10.4V87.673l86.502 56.653 83.355-57.07V188.5H46.799v-.026Zm8.658-107.562h152.048l-74.334 50.881-77.715-50.881h.001Z" fill="#000" opacity=".9"/></svg>
